dist/img/icons/events/fire.svg

<svg width="39" height="50" viewBox="0 0 39 50" fill="none" xmlns="http://www.w3.org/2000/svg">
<g filter="url(#filter0_d_929_26443)">
<path fill-rule="evenodd" clip-rule="evenodd" d="M17.0378 6.0746C17.4134 5.92078 17.8448 6.00934 18.1295 6.29872C19.3268 7.51573 20.9604 10.3599 21.7733 13.6761C22.5288 16.758 22.6183 20.4279 20.8202 23.6913C21.6373 24.2385 22.2331 24.3199 22.8396 24.0735C23.2938 23.889 23.862 23.4819 24.5658 22.6841C25.2658 21.8905 26.0574 20.7595 26.9704 19.2005C27.1329 18.9232 27.4187 18.7408 27.7387 18.7104C28.0586 18.68 28.3737 18.8052 28.5855 19.0469C29.6689 20.2835 30.7615 22.2304 31.5808 24.2492C32.3982 26.2633 33 28.487 33 30.2941C33 33.924 31.5816 37.4083 29.0517 39.9799C26.5213 42.552 23.0857 44 19.5 44C15.9143 44 12.4787 42.552 9.94831 39.9799C7.41842 37.4083 6 33.924 6 30.2941C6 26.3226 7.70304 21.8781 10.4443 19.0144L10.4448 19.0138C10.5257 18.9295 10.6074 18.8445 10.6898 18.7588C13.2299 16.1157 16.4167 12.7997 16.4167 7.00003C16.4167 6.59408 16.6621 6.22841 17.0378 6.0746ZM18.175 9.846C17.3144 14.7616 14.3362 17.8551 12.1849 20.0897C12.0842 20.1943 11.9853 20.297 11.8885 20.398C9.52172 22.8708 8 26.8118 8 30.2941C8 33.404 9.21551 36.3832 11.374 38.5773C13.532 40.7708 16.4553 42 19.5 42C22.5447 42 25.468 40.7708 27.626 38.5773C29.7845 36.3832 31 33.404 31 30.2941C31 28.8571 30.5018 26.909 29.7276 25.0013C29.1932 23.6846 28.5542 22.453 27.9187 21.4852C27.2678 22.5043 26.6544 23.3398 26.0656 24.0071C25.2517 24.9299 24.4413 25.5816 23.5922 25.9265C21.7475 26.6758 20.1865 25.8249 18.8565 24.7066C18.467 24.3792 18.3855 23.8114 18.6672 23.3876C20.5381 20.5731 20.5752 17.1886 19.8308 14.1522C19.425 12.4968 18.8018 11.0071 18.175 9.846Z" fill="#FF8A00"/>
<path fill-rule="evenodd" clip-rule="evenodd" d="M17.0378 6.0746C17.4134 5.92078 17.8448 6.00934 18.1295 6.29872C19.3268 7.51573 20.9604 10.3599 21.7733 13.6761C22.5288 16.758 22.6183 20.4279 20.8202 23.6913C21.6373 24.2385 22.2331 24.3199 22.8396 24.0735C23.2938 23.889 23.862 23.4819 24.5658 22.6841C25.2658 21.8905 26.0574 20.7595 26.9704 19.2005C27.1329 18.9232 27.4187 18.7408 27.7387 18.7104C28.0586 18.68 28.3737 18.8052 28.5855 19.0469C29.6689 20.2835 30.7615 22.2304 31.5808 24.2492C32.3982 26.2633 33 28.487 33 30.2941C33 33.924 31.5816 37.4083 29.0517 39.9799C26.5213 42.552 23.0857 44 19.5 44C15.9143 44 12.4787 42.552 9.94831 39.9799C7.41842 37.4083 6 33.924 6 30.2941C6 26.3226 7.70304 21.8781 10.4443 19.0144L10.4448 19.0138C10.5257 18.9295 10.6074 18.8445 10.6898 18.7588C13.2299 16.1157 16.4167 12.7997 16.4167 7.00003C16.4167 6.59408 16.6621 6.22841 17.0378 6.0746ZM18.175 9.846C17.3144 14.7616 14.3362 17.8551 12.1849 20.0897C12.0842 20.1943 11.9853 20.297 11.8885 20.398C9.52172 22.8708 8 26.8118 8 30.2941C8 33.404 9.21551 36.3832 11.374 38.5773C13.532 40.7708 16.4553 42 19.5 42C22.5447 42 25.468 40.7708 27.626 38.5773C29.7845 36.3832 31 33.404 31 30.2941C31 28.8571 30.5018 26.909 29.7276 25.0013C29.1932 23.6846 28.5542 22.453 27.9187 21.4852C27.2678 22.5043 26.6544 23.3398 26.0656 24.0071C25.2517 24.9299 24.4413 25.5816 23.5922 25.9265C21.7475 26.6758 20.1865 25.8249 18.8565 24.7066C18.467 24.3792 18.3855 23.8114 18.6672 23.3876C20.5381 20.5731 20.5752 17.1886 19.8308 14.1522C19.425 12.4968 18.8018 11.0071 18.175 9.846Z" stroke="#FCC500" stroke-width="0.5"/>
</g>
<defs>
<filter id="filter0_d_929_26443" x="0.75" y="0.75" width="37.5" height="48.5" filterUnits="userSpaceOnUse" color-interpolation-filters="sRGB">
<feFlood flood-opacity="0" result="BackgroundImageFix"/>
<feColorMatrix in="SourceAlpha" type="matrix" values="0 0 0 0 0 0 0 0 0 0 0 0 0 0 0 0 0 0 127 0" result="hardAlpha"/>
<feOffset/>
<feGaussianBlur stdDeviation="2.5"/>
<feComposite in2="hardAlpha" operator="out"/>
<feColorMatrix type="matrix" values="0 0 0 0 0.843137 0 0 0 0 0.759608 0 0 0 0 0.00784314 0 0 0 1 0"/>
<feBlend mode="normal" in2="BackgroundImageFix" result="effect1_dropShadow_929_26443"/>
<feBlend mode="normal" in="SourceGraphic" in2="effect1_dropShadow_929_26443" result="shape"/>
</filter>
</defs>
</svg>

<svg width="39" height="50" fill="none" xmlns="http://www.w3.org/2000/svg"><g filter="url(#a)" clip-rule="evenodd"><path fill-rule="evenodd" d="M17.038 6.075a1 1 0 0 1 1.091.224c1.198 1.217 2.831 4.06 3.644 7.377.756 3.082.845 6.752-.953 10.015.817.547 1.413.629 2.02.383.454-.185 1.022-.592 1.726-1.39.7-.794 1.491-1.925 2.404-3.483a1 1 0 0 1 1.616-.154c1.083 1.236 2.176 3.183 2.995 5.202.817 2.014 1.419 4.238 1.419 6.045 0 3.63-1.418 7.114-3.948 9.686A13.398 13.398 0 0 1 19.5 44a13.398 13.398 0 0 1-9.552-4.02A13.813 13.813 0 0 1 6 30.294c0-3.971 1.703-8.416 4.444-11.28l.246-.255c2.54-2.643 5.727-5.96 5.727-11.759a1 1 0 0 1 .62-.925Zm1.137 3.771c-.86 4.916-3.839 8.01-5.99 10.244l-.296.308C9.521 22.871 8 26.812 8 30.294c0 3.11 1.216 6.09 3.374 8.283A11.398 11.398 0 0 0 19.5 42c3.045 0 5.968-1.23 8.126-3.423A11.813 11.813 0 0 0 31 30.294c0-1.437-.498-3.385-1.272-5.293-.535-1.316-1.174-2.548-1.81-3.516-.65 1.02-1.264 1.855-1.852 2.522-.814.923-1.625 1.575-2.474 1.92-1.845.749-3.405-.102-4.735-1.22a1 1 0 0 1-.19-1.32c1.871-2.814 1.908-6.198 1.164-9.235a18.493 18.493 0 0 0-1.656-4.306Z" fill="#FF8A00"/><path d="M17.038 6.075a1 1 0 0 1 1.091.224c1.198 1.217 2.831 4.06 3.644 7.377.756 3.082.845 6.752-.953 10.015.817.547 1.413.629 2.02.383.454-.185 1.022-.592 1.726-1.39.7-.794 1.491-1.925 2.404-3.483a1 1 0 0 1 1.616-.154c1.083 1.236 2.176 3.183 2.995 5.202.817 2.014 1.419 4.238 1.419 6.045 0 3.63-1.418 7.114-3.948 9.686A13.398 13.398 0 0 1 19.5 44a13.398 13.398 0 0 1-9.552-4.02A13.813 13.813 0 0 1 6 30.294c0-3.971 1.703-8.416 4.444-11.28l.246-.255c2.54-2.643 5.727-5.96 5.727-11.759a1 1 0 0 1 .62-.925Zm1.137 3.771c-.86 4.916-3.839 8.01-5.99 10.244l-.296.308C9.521 22.871 8 26.812 8 30.294c0 3.11 1.216 6.09 3.374 8.283A11.398 11.398 0 0 0 19.5 42c3.045 0 5.968-1.23 8.126-3.423A11.813 11.813 0 0 0 31 30.294c0-1.437-.498-3.385-1.272-5.293-.535-1.316-1.174-2.548-1.81-3.516-.65 1.02-1.264 1.855-1.852 2.522-.814.923-1.625 1.575-2.474 1.92-1.845.749-3.405-.102-4.735-1.22a1 1 0 0 1-.19-1.32c1.871-2.814 1.908-6.198 1.164-9.235a18.493 18.493 0 0 0-1.656-4.306Z" stroke="#FCC500" stroke-width=".5"/></g><defs><filter id="a" x=".75" y=".75" width="37.5" height="48.5" filterUnits="userSpaceOnUse" color-interpolation-filters="sRGB"><feFlood flood-opacity="0" result="BackgroundImageFix"/><feColorMatrix in="SourceAlpha" values="0 0 0 0 0 0 0 0 0 0 0 0 0 0 0 0 0 0 127 0" result="hardAlpha"/><feOffset/><feGaussianBlur stdDeviation="2.5"/><feComposite in2="hardAlpha" operator="out"/><feColorMatrix values="0 0 0 0 0.843137 0 0 0 0 0.759608 0 0 0 0 0.00784314 0 0 0 1 0"/><feBlend in2="BackgroundImageFix" result="effect1_dropShadow_929_26443"/><feBlend in="SourceGraphic" in2="effect1_dropShadow_929_26443" result="shape"/></filter></defs></svg>
